resources/icons/20px/aimpoints-target.svg

<svg width="20" height="20" viewBox="0 0 20 20" fill="none" xmlns="http://www.w3.org/2000/svg">
<path d="M2.29582 12.1629C1.62162 12.3497 1.01102 12.6895 0.503737 13.1425C0.176897 12.1543 0 11.0978 0 10C0 4.47715 4.47715 0 10 0C11.0978 0 12.1543 0.176897 13.1425 0.503737C12.6895 1.01103 12.3497 1.62163 12.1629 2.29582C11.475 2.10307 10.7495 2 10 2C5.58172 2 2 5.58172 2 10C2 10.7495 2.10307 11.475 2.29582 12.1629Z" fill="black"/>
<path d="M18 10C18 9.25049 17.8969 8.52505 17.7042 7.83708C18.3784 7.65031 18.989 7.31055 19.4963 6.85753C19.8231 7.84574 20 8.90221 20 10C20 15.5228 15.5228 20 10 20C8.90221 20 7.84574 19.8231 6.85753 19.4963C7.31055 18.989 7.65031 18.3784 7.83708 17.7042C8.52505 17.8969 9.25048 18 10 18C14.4183 18 18 14.4183 18 10Z" fill="black"/>
<path d="M19 3.5C19 4.88071 17.8807 6 16.5 6C15.1193 6 14 4.88071 14 3.5C14 2.11929 15.1193 1 16.5 1C17.8807 1 19 2.11929 19 3.5Z" fill="black"/>
<path d="M6 16.5C6 17.8807 4.88071 19 3.5 19C2.11929 19 1 17.8807 1 16.5C1 15.1193 2.11929 14 3.5 14C4.88071 14 6 15.1193 6 16.5Z" fill="black"/>
<path d="M10 4C9.44775 4 9 4.44769 9 5V8C9 8.55231 9.44775 9 10 9C10.5522 9 11 8.55231 11 8V5C11 4.44769 10.5522 4 10 4Z" fill="black"/>
<path d="M11 10C11 9.44769 11.4478 9 12 9H15C15.5522 9 16 9.44769 16 10C16 10.5523 15.5522 11 15 11H12C11.4478 11 11 10.5523 11 10Z" fill="black"/>
<path d="M4 10C4 9.44769 4.44775 9 5 9H8C8.55225 9 9 9.44769 9 10C9 10.5523 8.55225 11 8 11H5C4.44775 11 4 10.5523 4 10Z" fill="black"/>
<path d="M9 12C9 11.4477 9.44775 11 10 11C10.5522 11 11 11.4477 11 12V15C11 15.5523 10.5522 16 10 16C9.44775 16 9 15.5523 9 15V12Z" fill="black"/>
</svg>

<svg xmlns="http://www.w3.org/2000/svg" viewBox="0 0 20 20">
  <path d="M2.296 12.163a4.5 4.5 0 0 0-1.792.98A10 10 0 0 1 0 10C0 4.477 4.477 0 10 0a10 10 0 0 1 3.143.504 4.5 4.5 0 0 0-.98 1.792 8 8 0 0 0-9.867 9.867M18 10c0-.75-.103-1.475-.296-2.163a4.5 4.5 0 0 0 1.792-.98C19.823 7.847 20 8.903 20 10c0 5.523-4.477 10-10 10a10 10 0 0 1-3.142-.504 4.5 4.5 0 0 0 .98-1.792A8 8 0 0 0 18 10M19 3.5a2.5 2.5 0 1 1-5 0 2.5 2.5 0 0 1 5 0M6 16.5a2.5 2.5 0 1 1-5 0 2.5 2.5 0 0 1 5 0"/>
  <path d="M10 4a1 1 0 0 0-1 1v3a1 1 0 0 0 2 0V5a1 1 0 0 0-1-1M11 10a1 1 0 0 1 1-1h3a1 1 0 0 1 0 2h-3a1 1 0 0 1-1-1M4 10a1 1 0 0 1 1-1h3a1 1 0 0 1 0 2H5a1 1 0 0 1-1-1M9 12a1 1 0 0 1 2 0v3a1 1 0 0 1-2 0z"/>
</svg>
